X: 42512
T: Wheatsheaf, The
R: jig
M: 6/8
K: Gmajor
d|:gfg d2B|cde d3|cac BgB|Adc BAG|
gfg d2B|cde d3|caf gdB|cAF G3:|
BAB GAB|cBc ABc|Bdc BAG|FDE FGA|
BAB GAB|cAF DEC|B,CD EFG|AGF G3|
BAB GAB|cBc ABc|Bdc BAG|FDE FGA|
BAB GAB|cAF DEC|B,CD EFG|ABc def|

